X: 29850
T: O'Donnell's Return
R: polka
M: 2/4
K: Amixolydian
|:dB|A2 e2 dBAB|G2 GG g2 fg|a2 gf e2 dB|G2 A2 BGdB|
A2 e2 dB AB|G2 GG g2 fg|a2 gf e2 dB|A4 A2:|
|:(3Bcd|e2 a2 agag|edef g2 fg|a2 gf e2 dB|G2 A2 BG (3Bcd|
e2 a2 agag|edef g2 fg|a2 gf e2 dB|A4 A2:|

